SVG/black-tie.svg

<?xml version="1.0" encoding="utf-8"?>
<!-- Generated by IcoMoon.io -->
<!DOCTYPE svg PUBLIC "-//W3C//DTD SVG 1.1//EN" "http://www.w3.org/Graphics/SVG/1.1/DTD/svg11.dtd">
<svg version="1.1" xmlns="http://www.w3.org/2000/svg" xmlns:xlink="http://www.w3.org/1999/xlink" width="12" height="14" viewBox="0 0 12 14">
<path fill="#444444" d="M0 1h12v12h-12v-12zM8.477 9.711l-1.727-4.93 1.727-2.32h-4.953l1.727 2.32-1.727 4.93 2.477 2.375z"></path>
</svg>

<svg xmlns="http://www.w3.org/2000/svg" viewBox="0 0 12 14"><path d="M0 1h12v12H0V1zm8.477 8.71L6.75 4.78l1.727-2.32H3.524L5.25 4.78 3.525 9.71 6 12.087z" /></svg>
